X:13
T:Esprit de Pentecte, souffle de Dieu - K138
C:M.A. Rtif
M:C
L:1/8
K:G
D|"Sol"D3/E/ DC B,2 B,2|"Do"G2 EC "Sim"D4|"Sol"G2 GA "Mim"B2 cB|"La"A2 AG "Re"A3 D|\
"Sol"D3/E/ DC B,2 B,2 |
"Do"G2 EC "Sim"D3 D|"Do"GA BG "Re"G2 A2|"Si4/3"B6 zD|"Do"GA BG "Re"G2 A2|"Sol"G8||"Mim"B,2 EF G3 F|\
EE FG "Sim"F2 F2 |
"Re"D2 GA "Sol"B3 A|"Mim"GG AB "La"A4|"Si"A2 Bc "Mim"B3 A|"Do"GG EE "Re"F4|"Sim"F2 GA "Do"G3 F|\
"Lam"EE FG "Re"HD3 D ||
